images/svg/GALERIE.svg

<svg width="30" height="25" viewBox="0 0 30 25" fill="none" xmlns="http://www.w3.org/2000/svg">
<path d="M28.1787 0.286133H5.30413C5.04051 0.286133 4.78752 0.389985 4.6009 0.574771C4.41452 0.75978 4.30953 1.01059 4.30953 1.27195V4.88739H0.994371C0.73075 4.88739 0.477762 4.99124 0.291143 5.17625C0.104759 5.36103 0 5.61185 0 5.87343V23.2927C0 23.554 0.104754 23.8049 0.291143 23.9899C0.477756 24.1746 0.730744 24.2785 0.994371 24.2785H23.5375C23.8013 24.2785 24.0543 24.1747 24.2407 23.9899C24.4273 23.8049 24.5321 23.554 24.5321 23.2927V19.6773H28.1789C28.4425 19.6773 28.6955 19.5734 28.8821 19.3884C29.0685 19.2036 29.1732 18.9528 29.1732 18.6912V1.27195C29.1732 1.0106 29.0685 0.759786 28.8821 0.574771C28.6955 0.389991 28.4425 0.286133 28.1789 0.286133H28.1787ZM20.2555 20.5648C20.1681 20.7147 20.0423 20.8392 19.8911 20.9258C19.7398 21.0123 19.5682 21.0579 19.3934 21.0577H5.10508C4.86111 21.06 4.62501 20.9733 4.4414 20.8142C4.25755 20.6551 4.13939 20.4345 4.10886 20.1947C4.07857 19.9549 4.138 19.7121 4.27628 19.5129L7.22678 15.3388C7.38009 15.1247 7.61319 14.9798 7.87471 14.9365C8.13603 14.8934 8.40404 14.9553 8.61909 15.1089L10.2103 16.2263L13.8571 11.9536C14.0601 11.7163 14.3645 11.5879 14.6778 11.6074C14.9911 11.6266 15.2767 11.7917 15.4483 12.0522L20.2222 19.5786C20.3147 19.7255 20.3663 19.894 20.3721 20.0671C20.3781 20.2402 20.3376 20.4117 20.2555 20.5646L20.2555 20.5648ZM7.22692 10.8692C7.22692 10.1369 7.52038 9.4347 8.04251 8.91676C8.5649 8.3991 9.27321 8.10819 10.0116 8.10819C10.7502 8.10819 11.4585 8.39911 11.9807 8.91676C12.5031 9.43466 12.7965 10.1369 12.7965 10.8692C12.7965 11.6012 12.5031 12.3034 11.9807 12.8213C11.4585 13.339 10.7502 13.6299 10.0116 13.6299C9.27321 13.6299 8.56489 13.339 8.04251 12.8213C7.52036 12.3034 7.22692 11.6012 7.22692 10.8692ZM27.1842 17.7054H24.532V5.87344C24.532 5.61186 24.4272 5.36105 24.2406 5.17626C24.0542 4.99125 23.8013 4.88739 23.5374 4.88739H6.29857V2.25801H27.1841L27.1842 17.7054Z" fill="#CAD3DB"/>
</svg>

<svg xmlns="http://www.w3.org/2000/svg" width="30" height="25" fill="none"><path fill="#CAD3DB" d="M28.179.286H5.304a1 1 0 0 0-.703.289.983.983 0 0 0-.291.697v3.615H.994a.999.999 0 0 0-.703.29.982.982 0 0 0-.291.696v17.42c0 .261.105.512.291.697a1 1 0 0 0 .703.289h22.544a.999.999 0 0 0 .703-.29.982.982 0 0 0 .291-.696v-3.616h3.647a.999.999 0 0 0 .703-.289.982.982 0 0 0 .291-.697V1.272a.982.982 0 0 0-.29-.697 1 1 0 0 0-.704-.289Zm-7.923 20.279a.993.993 0 0 1-.863.493H5.105a1 1 0 0 1-.664-.244.984.984 0 0 1-.165-1.301l2.95-4.174a.997.997 0 0 1 1.393-.23l1.591 1.117 3.647-4.272a.999.999 0 0 1 1.591.098l4.774 7.527a.978.978 0 0 1 .034.986Zm-13.03-9.696c0-.732.294-1.434.817-1.952a2.798 2.798 0 0 1 3.938 0c.522.518.816 1.22.816 1.952s-.294 1.434-.816 1.952a2.798 2.798 0 0 1-3.938 0 2.75 2.75 0 0 1-.816-1.952Zm19.958 6.836h-2.652V5.873a.981.981 0 0 0-.291-.697.998.998 0 0 0-.704-.289H6.3V2.258h20.885v15.447Z"/></svg>
